X: 4642
T: Boxiana
R: jig
M: 6/8
K: Gmajor
a2 e cde|f2 f agf|efe edc|cBB Beg|
a2 g cde|f2 f agf|efe dcB|A2 a a2:|
d3 Bcd|c2 e A2 c|d3 Bcd|c2 e A2 a|
g2 a f2 a|e2 a d2 a|gfg efg|a2 A A2:|
g2 d Bcd|e2 e gfe|ded dcB|BAA Adf|
g2 f Bcd|e2 e gfe|ded cBA|G2 g g2:|
c3 ABc|B2 d G2 B|c3 ABc|B2 d G2 g|
f2 g e2 g|d2 g c2 g|fef def|g2 G G2:|

